X: 20555
T: John Murphy's
R: polka
M: 2/4
K: Dmajor
|:FA/F/ ED|DF/A/ BA|dA dA|FE E2|
FA/F/ ED|DF/A/ BA|dA dA|FD D2:|
|:d>c de|dc BA|d>c dB|AF E2|
FA/F/ E(D|D)F/A/ BA|dA dA|FE D2:|

